X:1
T:E. O. Excell
T:Stephen E. Morgan
T:He Understands
%%score { ( 1 2 ) | ( 3 4 ) }
L:1/8
M:6/4
K:Ab
V:1 treble 
V:2 treble 
V:3 bass 
V:4 bass 
V:1
{/x} E>A | c3 B c2 e4 d>c | B3 B c2 d4 c>B | A3 G A2 B3 F c2 | B6- B4 E>A | c3 =B c2 e4 d>c | %6
w: There's a|qui\- et re\- treat, where with|Je\- sus I meet, And my|bur\- dens I place in His|hands; * Ev\- 'ry|sor\- row I bear, ev\- 'ry|
w: When o'er\-|come by my grief, no\- thing|brings such re\- lief As the|touch of His com\- fort\- ing|hands; * Ev\- 'ry|bur\- den He bore for my|
w: When my|friends all for\- sake, and my|sad heart would break, I reach|out to His beck\- on\- ing|hands; * They were|wound\- ed for me, that thro'|
w: Wheth\- er|wear\- y or sad, whe\- ther|cheer\- ful or glad, I will|cling to those nail\- pierc\- ed|hands; * For they|point day be day to my|
 B3 B c2 d4 c>B | A3 G A2 c4 B2 | A6- A4"^Refrain" e2 | e6- e6- | e6- e4 c2 | c6- c6- | %12
w: heart\- break\- ing care, Je\- sus|knows, and He un\- der\-|stands. * He|knows, *|* * He|knows, *|
w: sins o'er and oe'r, Je\- sus|knows, and He un\- der\-|stands. * *||||
w: faith I might see, Je\- sus|knows, and He un\- der\-|stands. * *||||
w: Home far a\- way, Je\- sus|knows, and He un\- der\-|stands. * *||||
 c6- c4 _E>E | c3 =B c2 e4 d>c | B3 B c2 d4 c>B | A3 G A2 c4 B2 | A6- A4 |] %17
w: * * Ev\- 'ry|sor\- row I bear, ev\- 'ry|heart\- break\- ing care, Je\- sus|knows, and He un\- der\-|stands. *|
w: * * Ev\- 'ry|bur\- den He bore for my|sins o'er and oe'r, Je\- sus|knows, and He un\- der\-|stands. *|
w: * * They were|wound\- ed for me, that thro'|faith I might see, Je\- sus|knows, and He un\- der\-|stands. *|
w: * * For they|point day be day to my|Home far a\- way, Je\- sus|knows, and He un\- der\-|stands. *|
V:2
 C>C | E3 =D E2 E4 E>E | F3 F F2 F4 F>F | E3 E E2 =D3 D D2 | (E6 D4) C>C | E3 =D E2 E4 E>E | %6
w: ||||||
 F3 F F2 F4 F>F | E3 E E2 E4 E2 | E6- E4 z2 | z4 G>A (d3 c) B2 | A6- A4 z2 | z4 =E>F (A3 G) F2 | %12
w: |||And He un- * der-|stands *|And He un * der-|
 =E6- E4 D>D | E3 =D E2 E4 E>E | F3 F F2 F4 F>F | E3 E E2 E4 E2 | E6- [Ex]4 |] %17
w: stands; * * *|||||
V:3
 A,>A, | A,3 A, A,2 A,4 G,>A, | A,3 A, =A,2 B,4 E>D | C3 B, C2 A,3 A, A,2 | G,6- G,4 A,>A, | %5
 A,3 A, A,2 A,4 G,>A, | A,3 A, =A,2 B,4 E>D | C3 B, C2 E4 D2 | C6- C4 z2 | z4 B,>C (F3 E) D2 | %10
 C6- C4 z2 | z4 G,>A, (C3 B,) A,2 | G,6- G,4 G,>G, | A,3 A, A,2 A,4 G,>A, | A,3 A, =A,2 B,4 E>D | %15
 C3 B, C2 E4 D2 | C6- C4 |] %17
V:4
 A,,>A,, | A,,3 A,, A,,2 C,4 B,,>A,, | D,3 D, C,2 B,,4 C,>D, | E,3 E, E,2 B,,3 B,, B,,2 | %4
 E,6- E,4 A,,>A,, | A,,3 A,, A,,2 C,4 B,,>A,, | D,3 D, C,2 B,,4 C,>D, | E,3 E, E,2 E,4 E,2 | %8
 [A,,A,]6- [A,,A,]4 z2 | z4 E,>E, E,3- E, E,2 | [A,,A,]6- [A,,A,]4 z2 | z4 C,>C, C,3 C, C,2 | %12
 C,6- C,4 B,,>B,, | A,,3 A,, A,,2 C,4 B,,>A,, | D,3 D, C,2 B,,4 C,>D, | E,3 E, E,2 E,4 E,2 | %16
 [A,,A,]6- [A,,A,x]4 |] %17

